Mono Glyph Icons/misc/misc-unfilled/apartment.svg

<svg height="48" viewBox="0 -960 960 960" width="48" xmlns="http://www.w3.org/2000/svg"><path d="m180-86q-39.8 0-66.9-27.1-27.1-27.1-27.1-66.9v-435q0-40.21 27.1-67.61 27.1-27.39 66.9-27.39h71v-70q0-40.21 27.1-67.61 27.1-27.39 66.9-27.39h270q40.21 0 67.61 27.39 27.39 27.4 27.39 67.61v235h70q40.21 0 67.61 27.39 27.39 27.4 27.39 67.61v270q0 39.8-27.39 66.9-27.4 27.1-67.61 27.1h-247v-199h-106v199zm0-94h105v-105h-105zm0-165h105v-105h-105zm0-165h105v-105h-105zm165 165h105v-105h-105zm0-165h105v-105h-105zm0-165h105v-105h-105zm165 330h105v-105h-105zm0-165h105v-105h-105zm0-165h105v-105h-105zm165 495h105v-105h-105zm0-165h105v-105h-105z"/></svg>

<svg xmlns="http://www.w3.org/2000/svg" height="48" viewBox="0 -960 960 960" width="48"><path d="M180-86q-39.8 0-66.9-27.1Q86-140.2 86-180v-435q0-40.21 27.1-67.61Q140.2-710 180-710h71v-70q0-40.21 27.1-67.61Q305.2-875 345-875h270q40.21 0 67.61 27.39Q710-820.21 710-780v235h70q40.21 0 67.61 27.39Q875-490.21 875-450v270q0 39.8-27.39 66.9Q820.21-86 780-86H533v-199H427v199H180Zm0-94h105v-105H180v105Zm0-165h105v-105H180v105Zm0-165h105v-105H180v105Zm165 165h105v-105H345v105Zm0-165h105v-105H345v105Zm0-165h105v-105H345v105Zm165 330h105v-105H510v105Zm0-165h105v-105H510v105Zm0-165h105v-105H510v105Zm165 495h105v-105H675v105Zm0-165h105v-105H675v105Z"/></svg>
